X:2
T:I Remember Clifford
C:Benny Golson
L:1/8
M:C
I:linebreak $
K:Eb
"Ab" z CEG"Fm" BA- AE/F/ |"Bb7" G4"A7" z4 "Ab7" x4|"G7" z G=Bd"Bo" f3 e |"Cm" e4"Bbm" x4"Abm" z4 "Gbm" x4|
"Fm" z CEF GFEF |"Bb7" E6 =B,_B |:$S"Eb" GG-"G7" G4 FD |"Ab" E4-"Aø" EFGA |
"Bb7" B3 B"Bo" =BAD=B |"Cm" c4- c"Cm6"Gcd ||1$"Aø" e3 e"D7" e2 dc |
"Gm" B/c/d- d2-"Gm6" dDG=A |"Eø" B3 B"A7" B2- B=A/G/ |"Fm" A6 G/F/D/C/ "Bb7" x4:|2$
"Aø" e3 e"D7" eFBc |"Gø" d6 c2 "C7" x4|"Fm" F3 ^c"Bb7" ^F3 d |"Eb" G3 e"Ab" c3 c/d/ |
"Aø" e4"D7" dcBc |"Gm" d/G/_d- d2"C7" z CEF |$"Fm" GCEF"E7" _G2 _c2 |"Eb" B6 z2 ||
"Dø" A3 A"G7" BAGF |"Cm" E/F/G- G2"Cm6" z Gcd |"Aø" e3 e"D7" fedB |
"Gm" d/G/_d-"C7" d2"Fm" c/F/_c-"Bb7" "_D.S. al 3rd end." cB ||3$"Aø" e3 e"D7" eFBc |
"Gø" _d3 d"C7" d2- d/C/E/F/ |"Fm" GCEF"E7" _G2 _c2 |"Eb" B6 z2 |]

